X:1
T:[ID 2-64]
T:[ID 2-64]
T:Bezeichnung standardisiert: Menuett Menuet 27.
T:Urheber unbekannt Erstbeleg: 1767 (Datum in der schriftlichen Quelle) Datum in der hier transkribierten schriftlichen Quelle: 1775
C:Urheber unbekannt
C:Erstbeleg: 1767 (Datum in der schriftlichen Quelle)
C:Datum in der hier transkribierten schriftlichen Quelle: 1775
L:1/8
M:3/4
K:G
V:1 treble 
V:1
 B3 dcA | B3 dcA | Bd f2 g2 | gBcA B2 |"^O)" B3 AGD | cAFD B,2 |"^O)" B3 AGD | cAFD B,2 | %8
 FAGCB,A, | B,4 z2 :: e3 dcd | (3efe (3ded c2 | f3 ede | (3fgf (3efe d2 |"^O)" B3 AGD | cAFD B,2 | %16
"^O)" B3 AGD | cAFD B,2 | FAGCB,A, | B,4 z2 :| %20

